data/icons/signal2.svg

<svg width="16" height="16" viewBox="0 0 16 16" fill="none" xmlns="http://www.w3.org/2000/svg">
    <path
        d="M15.7433 3.88296C13.4738 2.29397 10.7704 1.44165 8 1.44165C5.22956 1.44165 2.52618 2.29397 0.256719 3.88296L0.25 3.88752V4.74496L7.43056 15H8.56944L15.75 4.74508V3.88752L15.7433 3.88296ZM5.932 11.1164L8.30575 7.4479C8.761 7.46593 9.21367 7.5254 9.65812 7.62558L6.6825 12.1881L5.932 11.1164ZM5.31297 10.2323L4.11719 8.52452C5.02149 7.97522 6.0325 7.62501 7.08281 7.49724L5.31297 10.2323ZM7.30066 13.071L10.6561 7.92602C11.0824 8.08771 11.493 8.28804 11.8828 8.52452L8 14.0698L7.30066 13.071ZM12.4575 7.70387C11.1172 6.87852 9.57404 6.4415 8 6.4415C6.42596 6.4415 4.88283 6.87852 3.54253 7.70387L1.24566 4.42337C3.26085 3.12941 5.6053 2.44153 8.00016 2.44153C10.395 2.44153 12.7395 3.12941 14.7547 4.42337L12.4575 7.70387Z"
        fill="#087E8B" />
</svg>

<svg xmlns="http://www.w3.org/2000/svg" width="16" height="16" fill="none" viewBox="0 0 16 16"><path fill="#087e8b" d="M15.743 3.883a13.5 13.5 0 0 0-15.486 0l-.007.005v.857L7.43 15h1.14l7.18-10.255v-.857zm-9.811 7.233 2.374-3.668a7.5 7.5 0 0 1 1.352.178l-2.975 4.562zm-.619-.884L4.117 8.525c.904-.55 1.915-.9 2.966-1.028zm1.988 2.839 3.355-5.145q.64.243 1.227.599L8 14.07zm5.156-5.367a8.5 8.5 0 0 0-8.914 0l-2.297-3.28a12.5 12.5 0 0 1 13.509 0z"/></svg>
